X: 558
T: Major Robertson's Reel
%R: reel
B: "Twenty Four Country Dances for the Year 1805", Tho. Preston, ed. p.239 #2
F: http://folkopedia.efdss.org/images/archive/0/02/20121211105513%21Preston_24_1805.PDF
Z: 2014 John Chambers <jc:trillian.mit.edu>
M: C|
L: 1/8
K: C
G |\
c2ec AcGc | fage Tdcde |\
c2ec AcGE | FAGB c2c :|\
e/f/ |\
gcec fadf | gcec Bd-d>a |
gcec fadf | ecfd Tc2c>a |\
gcec fada | gcec Bd-d>a |\
ecfd geaf | (e/f/g) fd c2c |]
%%begintext align
%% 1st and 2d Cu. hands across back again. lead
%% down the middle up again poussette at top.
%%endtext

%%sep 1 1 500
%%sep 1 1 500
